lib/healthicons/icons/solid/places/temple.svg

<svg fill="none" height="48" viewBox="0 0 48 48" width="48" xmlns="http://www.w3.org/2000/svg"><path clip-rule="evenodd" d="m14 10.7622c0 3.5714 3 3.2857 3 3.2857v4s-3.2 7-6 3.8888c0 3.1112 2.8 3.1112 2.8 3.1112h1.2v4s-2.4 7-6 3.8888c0 1.671 1.0385 2.4445 2 2.8026v8.3086h26v-8.3086c.9615-.3581 2-1.1316 2-2.8026-2.749 2.3757-5.0607-1.1445-6-2.9415v-4.9473h1.2s2.8 0 2.8-3.1112c-2.2719 2.5244-5.0376-1.608-6-3.2566v-4.6322s3 .2857 3-3.2857c-4 4.2857-10-6.71435-10-6.71435s-6 11.00005-10 6.71435zm-1 31.2857v-6h2v6zm4 0h2v-2c0-1.1046.8954-2 2-2h6c1.1046 0 2 .8954 2 2v2h2v-6h-14zm16-6v6h2v-6zm-4-22v4h-2v-1c0-.5523-.4477-1-1-1s-1 .4477-1 1v1h-2v-1c0-.5523-.4477-1-1-1s-1 .4477-1 1v1h-2v-4zm-12 15v-4h14v4h-2v-1c0-.5523-.4477-1-1-1s-1 .4477-1 1v1h-2v-1c0-.5523-.4477-1-1-1s-1 .4477-1 1v1h-2v-1c0-.5523-.4477-1-1-1s-1 .4477-1 1v1z" fill="#333" fill-rule="evenodd"/></svg>

<svg width="48" height="48" viewBox="0 0 48 48" fill="none" xmlns="http://www.w3.org/2000/svg">
<path fill-rule="evenodd" clip-rule="evenodd" d="M14 10.7622C14 14.3336 17 14.0479 17 14.0479V18.0479C17 18.0479 13.8 25.0479 11 21.9367C11 25.0479 13.8 25.0479 13.8 25.0479H15V29.0479C15 29.0479 12.6 36.0479 9 32.9367C9 34.6077 10.0385 35.3812 11 35.7393V44.0479H37V35.7393C37.9615 35.3812 39 34.6077 39 32.9367C36.251 35.3124 33.9393 31.7922 33 29.9952V25.0479H34.2C34.2 25.0479 37 25.0479 37 21.9367C34.7281 24.4611 31.9624 20.3287 31 18.6801V14.0479C31 14.0479 34 14.3336 34 10.7622C30 15.0479 24 4.04785 24 4.04785C24 4.04785 18 15.0479 14 10.7622ZM13 42.0479V36.0479H15V42.0479H13ZM17 42.0479H19V40.0479C19 38.9433 19.8954 38.0479 21 38.0479H27C28.1046 38.0479 29 38.9433 29 40.0479V42.0479H31V36.0479H17V42.0479ZM33 36.0479V42.0479H35V36.0479H33ZM29 14.0479V18.0479H27V17.0479C27 16.4956 26.5523 16.0479 26 16.0479C25.4477 16.0479 25 16.4956 25 17.0479V18.0479H23V17.0479C23 16.4956 22.5523 16.0479 22 16.0479C21.4477 16.0479 21 16.4956 21 17.0479V18.0479H19V14.0479H29ZM17 29.0479V25.0479H31V29.0479H29V28.0479C29 27.4956 28.5523 27.0479 28 27.0479C27.4477 27.0479 27 27.4956 27 28.0479V29.0479H25V28.0479C25 27.4956 24.5523 27.0479 24 27.0479C23.4477 27.0479 23 27.4956 23 28.0479V29.0479H21V28.0479C21 27.4956 20.5523 27.0479 20 27.0479C19.4477 27.0479 19 27.4956 19 28.0479V29.0479H17Z" fill="#333333"/>
</svg>
